X: 20162
T: MONTICELLA'S MARCH
C:
%R: march
B: Elias Howe "The Musician's Companion" 1843 p.16 #2
S: http://imslp.org/wiki/The_Musician's_Companion_(Howe,_Elias)
Z: 2015 John Chambers <jc:trillian.mit.edu>
M: C|
L: 1/8
K: G
% - - - - - - - - - - - - - - - - - - - - - - - - -
D2 |\
G2BG A2dc | Bgfe d2Bd | c2ec B2dB | AGAB AcBA |\
G2BG A2dc | Bgfe d2(3(Bcd) | e2(3(cde) f2(3(def) | g2G>G G2 :|
|: Bc |\
d2de dBgd | e2e>e ecge | d2de d2BG | AGAB AcBA |\
G2BG A2dc | Bgfe d2(3(Bcd) | e2(3(cde) f2(3(def) | g2G>G G2 :|
% - - - - - - - - - - - - - - - - - - - - - - - - -

%%sep 1 1 500

